src/icons/main-apply.svg

<svg enable-background="new 0 0 14 14" viewBox="0 0 14 14" xmlns="http://www.w3.org/2000/svg"><path d="m2.5 0c-.6 0-1.1.5-1.1 1.1v5.7c0 .6.5 1.1 1.1 1.1h5.7c.6 0 1.1-.5 1.1-1.1v-5.7c0-.6-.5-1.1-1.1-1.1zm0 .6h1.1c0 .2.1.3.3.3s.3-.1.3-.3h1.3c0 .2.1.3.3.3s.3-.1.3-.3h1.3c0 .2.1.3.3.3s.3-.1.3-.3h.2c.2 0 .4.2.4.4v.2c-.2 0-.3.1-.3.3s.1.3.3.3v1.3c-.2 0-.3.1-.3.3s.1.3.3.3v1.3c-.1 0-.3.2-.3.4s.1.3.3.3v1.1.1c-.1.1-.3.2-.3.3h-.1-1.1c0-.2-.1-.3-.3-.3s-.4.2-.4.4h-1.2c0-.2-.1-.3-.3-.3s-.3.1-.3.3h-1.3c0-.2-.1-.3-.3-.3s-.4.1-.4.3h-.1c-.3 0-.5-.2-.5-.5v-.2c.2 0 .3-.1.3-.3s-.1-.3-.3-.3v-1.3c.2 0 .3-.1.3-.3s-.1-.3-.3-.3v-1.3c.2 0 .3-.1.3-.3s-.1-.3-.3-.3v-1.1c0-.1 0-.1 0-.2.2 0 .3-.1.3-.3zm.5.7c-.2 0-.3.1-.3.3s.1.3.3.3.3-.1.3-.3-.2-.3-.3-.3zm1.8 0c-.2 0-.3.1-.3.3s.1.3.3.3.3-.1.3-.3c.1-.2-.1-.3-.3-.3zm1.9 0c-.2 0-.3.1-.3.3s.1.3.3.3.3-.1.3-.3c.1-.2-.1-.3-.3-.3zm-2.8.9c-.2 0-.3.1-.3.3s.1.3.3.3.3-.1.3-.3c0-.1-.1-.3-.3-.3zm1.9 0c-.2 0-.3.1-.3.3s.1.3.3.3.3-.1.3-.3c0-.1-.1-.3-.3-.3zm1.9 0c-.2 0-.3.1-.3.3s.1.3.3.3.3-.1.3-.3c0-.1-.1-.3-.3-.3zm-4.7 1c-.2 0-.3.1-.3.3s.1.3.3.3.3-.1.3-.3-.2-.3-.3-.3zm1.8 0c-.2 0-.3.1-.3.3s.1.3.3.3.3-.1.3-.3c.1-.2-.1-.3-.3-.3zm1.9 0c-.2 0-.3.1-.3.3s.1.3.3.3.3-.1.3-.3c.1-.2-.1-.3-.3-.3zm-2.8.9c-.2 0-.3.1-.3.3s.1.3.3.3.3-.1.3-.3-.1-.3-.3-.3zm1.9 0c-.2 0-.3.1-.3.3s.1.3.3.3.3-.1.3-.3-.1-.3-.3-.3zm1.9 0c-.2 0-.3.1-.3.3s.1.3.3.3.3-.1.3-.3-.1-.3-.3-.3zm2.2.6v.6h3c.2 0 .4.2.4.4v5.7c0 .2-.2.4-.4.4h-5.7c-.2 0-.4-.2-.4-.4v-3h-.7v3c0 .6.5 1.1 1.1 1.1h5.7c.6 0 1.1-.5 1.1-1.1v-5.6c0-.6-.5-1.1-1.1-1.1zm-6.9.3c-.2 0-.4.2-.4.4s.2.3.4.3.3-.1.3-.3-.2-.4-.3-.4zm1.8 0c-.1 0-.3.2-.3.4s.1.3.3.3.3-.1.3-.3-.1-.4-.3-.4zm1.9 0c-.1 0-.3.2-.3.4s.1.3.3.3.3-.1.3-.3-.1-.4-.3-.4zm-2.8 1c-.2 0-.3.1-.3.3s.1.3.3.3.3-.1.3-.3-.1-.3-.3-.3zm1.9 0c-.2 0-.3.1-.3.3s.1.3.3.3.3-.1.3-.3-.1-.3-.3-.3zm1.9 0c-.2 0-.3.1-.3.3s.1.3.3.3.3-.1.3-.3-.1-.3-.3-.3zm-7.3 2.5c-.2 0-.3.1-.3.3v2.8c0 .5.4.9.9.9h3l-.7.7c-.1.1-.1.2-.1.3s.1.2.2.2.2 0 .3-.1l1.3-1c.1-.1.1-.2.1-.3s0-.2-.1-.3l-1.2-1.2c-.1-.1-.1-.1-.2-.1s-.2.1-.3.2c0 .1 0 .3.1.3l.7.8h-3c-.2 0-.3-.1-.3-.3v-2.9c0-.1 0-.2-.1-.2-.1-.1-.2-.1-.3-.1z" fill="#4d5969"/></svg>

<?xml version="1.0" encoding="utf-8"?>
<!-- Generator: Adobe Illustrator 20.1.0, SVG Export Plug-In . SVG Version: 6.00 Build 0)  -->
<svg version="1.1" id="Layer_1" xmlns="http://www.w3.org/2000/svg" xmlns:xlink="http://www.w3.org/1999/xlink" x="0px" y="0px"
	 viewBox="0 0 14 14" style="enable-background:new 0 0 14 14;" xml:space="preserve">
<style type="text/css">
	.st0{fill:#4D5969;}
</style>
<title>HDL/Icon/Standard/apply</title>
<desc>Created with Sketch.</desc>
<g id="Colors">
	<g id="Main-Icons" transform="translate(-622.000000, -1582.000000)">
		<g id="Apply" transform="translate(601.000000, 1564.000000)">
			<g id="HDL_x2F_Icon_x2F_Standard_x2F_apply" transform="translate(21.000000, 18.000000)">
				<path id="Shape" class="st0" d="M2.5,0C1.9,0,1.4,0.5,1.4,1.1v5.7c0,0.6,0.5,1.1,1.1,1.1h5.7c0.6,0,1.1-0.5,1.1-1.1V1.1
					C9.3,0.5,8.8,0,8.2,0H2.5z M2.5,0.6h1.1c0,0.2,0.1,0.3,0.3,0.3c0.2,0,0.3-0.1,0.3-0.3h1.3c0,0.2,0.1,0.3,0.3,0.3
					c0.2,0,0.3-0.1,0.3-0.3h1.3c0,0.2,0.1,0.3,0.3,0.3C7.9,0.9,8,0.8,8,0.6h0.2c0.2,0,0.4,0.2,0.4,0.4v0.2c-0.2,0-0.3,0.1-0.3,0.3
					s0.1,0.3,0.3,0.3v1.3c-0.2,0-0.3,0.1-0.3,0.3c0,0.2,0.1,0.3,0.3,0.3V5C8.5,5,8.3,5.2,8.3,5.4c0,0.2,0.1,0.3,0.3,0.3v1.1v0.1
					C8.5,7,8.3,7.1,8.3,7.2H8.2H7.1C7.1,7,7,6.9,6.8,6.9c-0.2,0-0.4,0.2-0.4,0.4H5.2C5.2,7.1,5.1,7,4.9,7C4.7,7,4.6,7.1,4.6,7.3H3.3
					C3.3,7.1,3.2,7,3,7S2.6,7.1,2.6,7.3H2.5C2.2,7.3,2,7.1,2,6.8V6.6c0.2,0,0.3-0.1,0.3-0.3C2.3,6.1,2.2,6,2,6V4.7
					c0.2,0,0.3-0.1,0.3-0.3c0-0.2-0.1-0.3-0.3-0.3V2.8c0.2,0,0.3-0.1,0.3-0.3S2.2,2.2,2,2.2V1.1C2,1,2,1,2,0.9
					c0.2,0,0.3-0.1,0.3-0.3C2.4,0.6,2.4,0.6,2.5,0.6z M3,1.3c-0.2,0-0.3,0.1-0.3,0.3S2.8,1.9,3,1.9s0.3-0.1,0.3-0.3S3.1,1.3,3,1.3z
					 M4.8,1.3c-0.2,0-0.3,0.1-0.3,0.3s0.1,0.3,0.3,0.3c0.2,0,0.3-0.1,0.3-0.3C5.2,1.4,5,1.3,4.8,1.3z M6.7,1.3
					c-0.2,0-0.3,0.1-0.3,0.3s0.1,0.3,0.3,0.3C6.9,1.9,7,1.8,7,1.6C7.1,1.4,6.9,1.3,6.7,1.3z M3.9,2.2c-0.2,0-0.3,0.1-0.3,0.3
					s0.1,0.3,0.3,0.3c0.2,0,0.3-0.1,0.3-0.3C4.2,2.4,4.1,2.2,3.9,2.2z M5.8,2.2c-0.2,0-0.3,0.1-0.3,0.3s0.1,0.3,0.3,0.3
					c0.2,0,0.3-0.1,0.3-0.3C6.1,2.4,6,2.2,5.8,2.2z M7.7,2.2c-0.2,0-0.3,0.1-0.3,0.3s0.1,0.3,0.3,0.3C7.9,2.8,8,2.7,8,2.5
					C8,2.4,7.9,2.2,7.7,2.2z M3,3.2c-0.2,0-0.3,0.1-0.3,0.3S2.8,3.8,3,3.8s0.3-0.1,0.3-0.3S3.1,3.2,3,3.2z M4.8,3.2
					c-0.2,0-0.3,0.1-0.3,0.3s0.1,0.3,0.3,0.3c0.2,0,0.3-0.1,0.3-0.3C5.2,3.3,5,3.2,4.8,3.2z M6.7,3.2c-0.2,0-0.3,0.1-0.3,0.3
					s0.1,0.3,0.3,0.3C6.9,3.8,7,3.7,7,3.5C7.1,3.3,6.9,3.2,6.7,3.2z M3.9,4.1c-0.2,0-0.3,0.1-0.3,0.3c0,0.2,0.1,0.3,0.3,0.3
					c0.2,0,0.3-0.1,0.3-0.3C4.2,4.2,4.1,4.1,3.9,4.1z M5.8,4.1c-0.2,0-0.3,0.1-0.3,0.3c0,0.2,0.1,0.3,0.3,0.3c0.2,0,0.3-0.1,0.3-0.3
					C6.1,4.2,6,4.1,5.8,4.1z M7.7,4.1c-0.2,0-0.3,0.1-0.3,0.3c0,0.2,0.1,0.3,0.3,0.3C7.9,4.7,8,4.6,8,4.4C8,4.2,7.9,4.1,7.7,4.1z
					 M9.9,4.7v0.6h3c0.2,0,0.4,0.2,0.4,0.4v5.7c0,0.2-0.2,0.4-0.4,0.4H7.2c-0.2,0-0.4-0.2-0.4-0.4v-3H6.1v3c0,0.6,0.5,1.1,1.1,1.1
					h5.7c0.6,0,1.1-0.5,1.1-1.1V5.8c0-0.6-0.5-1.1-1.1-1.1H9.9z M3,5C2.8,5,2.6,5.2,2.6,5.4c0,0.2,0.2,0.3,0.4,0.3s0.3-0.1,0.3-0.3
					C3.3,5.2,3.1,5,3,5z M4.8,5C4.7,5,4.5,5.2,4.5,5.4c0,0.2,0.1,0.3,0.3,0.3c0.2,0,0.3-0.1,0.3-0.3C5.1,5.2,5,5,4.8,5z M6.7,5
					C6.6,5,6.4,5.2,6.4,5.4c0,0.2,0.1,0.3,0.3,0.3C6.9,5.7,7,5.6,7,5.4C7,5.2,6.9,5,6.7,5z M3.9,6C3.7,6,3.6,6.1,3.6,6.3
					c0,0.2,0.1,0.3,0.3,0.3c0.2,0,0.3-0.1,0.3-0.3C4.2,6.1,4.1,6,3.9,6z M5.8,6C5.6,6,5.5,6.1,5.5,6.3c0,0.2,0.1,0.3,0.3,0.3
					c0.2,0,0.3-0.1,0.3-0.3C6.1,6.1,6,6,5.8,6z M7.7,6C7.5,6,7.4,6.1,7.4,6.3c0,0.2,0.1,0.3,0.3,0.3C7.9,6.6,8,6.5,8,6.3
					C8,6.1,7.9,6,7.7,6z M0.4,8.5c-0.2,0-0.3,0.1-0.3,0.3v2.8c0,0.5,0.4,0.9,0.9,0.9h3l-0.7,0.7c-0.1,0.1-0.1,0.2-0.1,0.3
					s0.1,0.2,0.2,0.2c0.1,0,0.2,0,0.3-0.1l1.3-1c0.1-0.1,0.1-0.2,0.1-0.3c0-0.1,0-0.2-0.1-0.3l0,0l-1.2-1.2
					c-0.1-0.1-0.1-0.1-0.2-0.1c-0.1,0-0.2,0.1-0.3,0.2c0,0.1,0,0.3,0.1,0.3L4.1,12h-3c-0.2,0-0.3-0.1-0.3-0.3V8.8
					c0-0.1,0-0.2-0.1-0.2C0.6,8.5,0.5,8.5,0.4,8.5z"/>
			</g>
		</g>
	</g>
</g>
</svg>
